X:1
T:Shana Golden  "Arranged by Terry Tully"
M:6/8
L:1/8
Q:80
C:Traditional Irish
S:Air
K:HP
[| {g}A3{GAG}A2{d}A | \
{g}Bd2-d2e | \
{Gdc}d3{e}B3 |
{G}A3-A2d | \
{g}e3{A}e2d{g}fa2-a2f | \
{ag}a3{e}f3 |
{g}e3-e2d | \
{g}e3{A}e2d | \
{g}fa2-a2f |
{ag}a3{e}f3{g}e3-e2f | \
{g}e2d{e}B2{G}A | \
{g}Bd2-d2e |
{Gdc}d3{e}B3 | \
{G}A3-A3|]
